!!!SOCIAL_FUNCTION:	lightning songs
!!!PDT:	1932
!!!OTL: No_53_I_Will_Go_Toward_the_South.krn
!!!REG: Southwest
!!!LANG: Non-Tone
!!!LING_GROUP: Yuman-Cochimi
**kern	**kern
*staff2	*staff1
=1-	=1-
*clefF4	*clefF4
*k[b-e-a-]	*k[b-e-a-]
*M2/4	*M2/4
4GG/	4r
4GG/	8r
.	8E-\
=2	=2
4GG/	8F\L
.	8F\J
4r	4F\
=3	=3
4GG/	8F\
.	4r
4GG/	.
.	8E-\
=4	=4
4GG/	8F\L
.	8F\J
4r	4F\
=5	=5
2r	8F\
.	4r
.	8E-\
=6	=6
2r	2F\
=7	=7
2r	4F\
.	4E-\
=8	=8
2r	4F\
.	8r
.	8E-\
=9	=9
2r	2F\
=10	=10
2r	4F\
.	8r
.	8F\
=11	=11
2r	2F\
=12	=12
2r	4F\
.	4E-\
=13	=13
2r	4F\
.	8r
.	8F\
=14	=14
2r	2F\
=15	=15
2r	4F\
.	4r
=16	=16
2r	2F\
=17	=17
2r	4G\
.	4E-\
=18	=18
2r	8F\
.	4r
.	8F\
=19	=19
2r	2F\
=20	=20
2r	4F\
.	4r
=21	=21
2r	2F\
=22	=22
2r	8F\
.	4r
.	8F\
=23	=23
2r	2F\
=24	=24
2r	8F\
.	4r
.	8F\
=25	=25
2r	2F\
=26	=26
2r	8F\
.	8r
.	4r
=27	=27
2r	2F\
=28	=28
2r	4G\
.	4E-\
=29	=29
2r	8E-\
.	4r
.	8F\
=30!|:	=30!|:
2r	4.F\
.	8G\
=31	=31
2r	8F\
.	4r
.	8F\
=32	=32
2r	2F\
=33	=33
2r	8F\
.	4r
.	8F\
=34	=34
2r	2F\
=35	=35
2r	8F\
.	4r
.	8F\
=36	=36
2r	2F\
=37	=37
2r	8F\
.	8r
.	4r
=38	=38
2r	2F\
=39	=39
2r	4G\
.	4E-\
=40	=40
2r	2E-\
=41	=41
2r	4E-\
.	8r
.	8F\
=42	=42
2r	4F\
.	4F\
=43	=43
2r	8F\
.	4r
.	8F\
=44	=44
2r	4F\
.	4F\
=45	=45
2r	4F\
.	4r
=46	=46
2r	2F\
=47	=47
2r	4F\
.	8r
.	8F\
=48	=48
2r	4F\
.	4F\
=49	=49
2r	4G\
.	4E-\
=50	=50
2r	2E-\
=51	=51
2r	4E-\
.	4r
=52	=52
2r	2F\
=53	=53
2r	4F\
.	8r
.	8F\
=54	=54
2r	2F\
=55	=55
2r	4F\
.	8r
.	8F\
=56	=56
2r	2F\
=57	=57
2r	8F\
.	4r
.	8F\
=58	=58
2r	4.F\
.	8G\
=59	=59
2r	8F\
.	8r
.	4r
=60	=60
2r	2B-\
=61	=61
2r	4A-\
.	4F\
=62	=62
2r	2F\
=63	=63
2r	4F\
.	4r
=64	=64
2r	2F\
=65	=65
2r	4G\
.	4E-\
=66	=66
2r	2E-\
=67	=67
2r	4E-\
.	4r
=68	=68
2r	2F\
=69	=69
2r	8F\
.	8r
.	8r
.	8F\
=70	=70
2r	2F\
=71	=71
2r	4.F\
.	8F\
=72	=72
2r	4F\
.	4E-\
=73	=73
2r	2E-\
=74	=74
2r	8E-\
.	4r
.	8F\
=75	=75
2r	4.F\
.	8G\
=76	=76
2r	4F\
.	8E-\L
.	8F\J
=77	=77
2r	2F\
=78	=78
2r	4F\
.	8r
.	8F\
=79	=79
2r	4F\
.	4E-\
=80	=80
2r	2F\
=81	=81
2r	4F\
.	4r
=82	=82
2r	4F\
.	4F\
=83	=83
2r	4F\
.	4E-\
=84	=84
2r	2F\
=85	=85
2r	8F\
.	4r
.	8E-\
=86	=86
2r	4E-\
.	4E-\
=87	=87
2r	4.E-\
.	8F\
=88	=88
2r	4E-\
.	8r
.	8F\
=89:|!	=89:|!
2r	4E-\
.	4r
==	==
*-	*-
